X:251
T:Handels Gavott..(No2). JC.256
T:Sidney Smith's March, aka. JC.256
R:Gavotte
S:John Clare,Poet,Helpstone (1793-1864)
O:England
A:Northamptonshire
Z:vmp.P. Headford
M:6/8
L:1/8
Q:1/4=180
K:G
Bc|\
d2d2d2d2|e2d2c2B2|dc BcA2dc|BcABG2dc|!
BdBd AdAd|GdGd^c2|d6:|!
|:AG|FDFA dABc|B4dcdc|BdBd gde=f|e6gf|!
egeg dgdg|cgcg BgBg|egeg dgdg|cgcg BgBg|!
e2d2c2B2|e2d2c2B2|e2d2c2B2|A6Bc|!
d2d2d2d2|e2d2c2B2|c2BcA2dc|BcABG2dc|!
BdBd AdAd|GdGd FdFd|EdEd FdFd|GdGd AdAd|cedcB2A2|G6|]
W:Bars 7,8 as |Bcedd2| in MS. CGP.

